!!!OTL: "Der Versucher" ACH ENGLISCHE SCHAEFERRIN
!!!ARE: Europa, Mitteleuropa, Deutschland, Franken
!!!SCT: Z1169
!!!YEM: Copyright 1995, estate of Helmut Schaffrath.
**kern
*ICvox
*Ivox
*M3/4
*k[f#]
*G:
{4d
=1
4g
4g
4a
=2
8b
8cc
4dd}
{4ee
=3
4dd
4b
8a
8b
=4
2g}
{4d
=5
4g
4g
4a
=6
8b
8cc
4dd}
{4ee
=7
4dd
4b
8a
8b
=8
2g}
{8b
8cc
=9
4dd
4b
4ee
=10
8dd
8cc
4a}
{4a
=11
4.b
8a
8g
8b
=12
2a}
{4d
=13
4g
4g
4a
=14
8b
8cc
4dd}
{4ee
=15
4dd
4b
8a
8b
=16
2g}
==
!!!AGN: Liebes - Lied, Jaeger - Lied
!!!ONB: ESAC (Essen Associative Code) Database: ZUCCAL
!!!AMT: simple triple
!!!AIN: vox
!!!EED: Helmut Schaffrath
!!!EEV: 1.0
*-
